X:1
T:Cold Cold Heart
M:4/4
L:1/4
K:F
 c| c B B A| A G G F| F C D C| E3| e| e d d c| c =B _B D| E B A ^G|\
 A3| c| c B B A| A G G F| A A B c| d3| e| e d d c| c =B _B D| E B A G|\
 F3||
